X: 1
T:Bluff -- Reel
M:2/4
L:1/16
C:G.L.TRACY.
R:reel
B:Ryan's Mammoth Collection
N:278
Z:Contributed by Ray Davies,  ray:davies99.freeserve.co.uk
K:F
vAB|\
cdef cAFA | BcdB ABcA | GABG FEFA | GFED C2(AB) |
cdef cAFA | BcdB ABcA | GABG FEFA | c^cde f2:|
|:vfe|\
dAAA dAde | fgaf gece | dAAA dAde | fage defd |
cGGG cGcd | ecd=B cBAG | A=Bcd efgf | ecd=B c2:|
